images/icon_bonds.svg

<svg width="32" height="32" viewBox="0 0 32 32" fill="none" xmlns="http://www.w3.org/2000/svg">
<path d="M3.27704 19.0907H2.27704C2.27704 19.5145 2.5442 19.8923 2.94379 20.0336L3.27704 19.0907ZM3.27704 5.0548L2.94379 4.11196C2.5442 4.25319 2.27704 4.63098 2.27704 5.0548H3.27704ZM5.23444 21.8593L4.23444 21.8595C4.23452 22.4036 4.66959 22.8477 5.21357 22.8591L5.23444 21.8593ZM12.1103 21.8598V22.8598C12.4948 22.8598 12.8454 22.6392 13.0118 22.2925L12.1103 21.8598ZM12.2658 21.6081L13.0569 22.2198L12.2658 21.6081ZM12.5264 20.4662L13.5046 20.2583L12.5264 20.4662ZM13.8685 18.7832L13.8535 17.7833L13.8535 17.7833L13.8685 18.7832ZM14.9239 18.275L14.1515 17.6398L14.1515 17.6398L14.9239 18.275ZM17.0764 18.275L17.8488 17.6398L17.8488 17.6398L17.0764 18.275ZM18.1317 18.7832L18.1468 17.7833L18.1468 17.7833L18.1317 18.7832ZM19.4738 20.4662L20.452 20.674V20.674L19.4738 20.4662ZM19.7345 21.6081L18.9434 22.2198L19.7345 21.6081ZM19.89 21.8598L18.9885 22.2925C19.1549 22.6392 19.5054 22.8598 19.89 22.8598V21.8598ZM26.7232 21.8598V22.8598L26.7286 22.8597L26.7232 21.8598ZM26.7451 21.8596L26.7505 22.8597L26.7609 22.8595L26.7451 21.8596ZM26.7658 21.8593L26.7816 22.8592C27.3276 22.8506 27.7657 22.4055 27.7658 21.8595L26.7658 21.8593ZM28.7232 19.0907L29.0565 20.0336C29.4561 19.8923 29.7232 19.5145 29.7232 19.0907H28.7232ZM28.7232 5.0548H29.7232C29.7232 4.63098 29.4561 4.25319 29.0565 4.11196L28.7232 5.0548ZM26.7658 2.28621L27.7658 2.28606C27.7657 1.74198 27.3307 1.2978 26.7867 1.28643L26.7658 2.28621ZM5.23444 2.28621L5.21355 1.28643C4.66958 1.2978 4.23452 1.74198 4.23444 2.28606L5.23444 2.28621ZM4.27704 19.0907V5.0548H2.27704V19.0907H4.27704ZM6.23444 21.8592C6.23418 20.1441 5.13753 18.6877 3.61028 18.1479L2.94379 20.0336C3.69703 20.2998 4.23431 21.0182 4.23444 21.8595L6.23444 21.8592ZM5.27704 20.8598C5.26977 20.8598 5.26252 20.8597 5.2553 20.8595L5.21357 22.8591C5.23468 22.8595 5.25584 22.8598 5.27704 22.8598V20.8598ZM12.1103 20.8598H5.27704V22.8598H12.1103V20.8598ZM13.0118 22.2925C13.0233 22.2685 13.0381 22.2442 13.0569 22.2198L11.4747 20.9965C11.3696 21.1324 11.2809 21.2767 11.2088 21.427L13.0118 22.2925ZM13.0569 22.2198C13.487 21.6635 13.6507 20.9462 13.5046 20.2583L11.5483 20.674C11.5723 20.7871 11.5454 20.905 11.4747 20.9965L13.0569 22.2198ZM13.5046 20.2583C13.4531 20.0159 13.6358 19.7868 13.8836 19.7831L13.8535 17.7833C12.3463 17.806 11.235 19.1995 11.5483 20.674L13.5046 20.2583ZM13.8835 19.7831C14.5867 19.7726 15.2496 19.4533 15.6962 18.9102L14.1515 17.6398C14.0781 17.7291 13.9691 17.7816 13.8535 17.7833L13.8835 19.7831ZM15.6962 18.9102C15.8536 18.7188 16.1466 18.7188 16.304 18.9102L17.8488 17.6398C16.8913 16.4756 15.1089 16.4756 14.1515 17.6398L15.6962 18.9102ZM16.304 18.9102C16.7507 19.4533 17.4136 19.7726 18.1167 19.7831L18.1468 17.7833C18.0312 17.7816 17.9222 17.7291 17.8488 17.6398L16.304 18.9102ZM18.1167 19.7831C18.3645 19.7868 18.5472 20.0159 18.4957 20.2583L20.452 20.674C20.7653 19.1995 19.654 17.806 18.1468 17.7833L18.1167 19.7831ZM18.4957 20.2583C18.3495 20.9462 18.5133 21.6635 18.9434 22.2198L20.5256 20.9965C20.4549 20.905 20.428 20.7871 20.452 20.674L18.4957 20.2583ZM18.9434 22.2198C18.9622 22.2442 18.977 22.2685 18.9885 22.2925L20.7915 21.427C20.7194 21.2767 20.6307 21.1324 20.5256 20.9965L18.9434 22.2198ZM26.7232 20.8598H19.89V22.8598H26.7232V20.8598ZM26.7398 20.8597L26.7178 20.8598L26.7286 22.8597L26.7505 22.8596L26.7398 20.8597ZM26.7501 20.8594L26.7294 20.8598L26.7609 22.8595L26.7816 22.8592L26.7501 20.8594ZM28.39 18.1479C26.8627 18.6877 25.7661 20.1441 25.7658 21.8592L27.7658 21.8595C27.7659 21.0182 28.3032 20.2998 29.0565 20.0336L28.39 18.1479ZM27.7232 5.0548V19.0907H29.7232V5.0548H27.7232ZM25.7658 2.28636C25.7661 4.00147 26.8627 5.45783 28.39 5.99763L29.0565 4.11196C28.3032 3.84572 27.7659 3.12736 27.7658 2.28606L25.7658 2.28636ZM26.7232 3.28577C26.7305 3.28577 26.7377 3.28584 26.7449 3.28599L26.7867 1.28643C26.7656 1.28599 26.7444 1.28577 26.7232 1.28577V3.28577ZM5.27704 3.28577H26.7232V1.28577H5.27704V3.28577ZM5.25533 3.28599C5.26253 3.28584 5.26977 3.28577 5.27704 3.28577V1.28577C5.25584 1.28577 5.23467 1.28599 5.21355 1.28643L5.25533 3.28599ZM3.61028 5.99764C5.13753 5.45783 6.23418 4.00147 6.23444 2.28636L4.23444 2.28606C4.23431 3.12736 3.69703 3.84572 2.94379 4.11196L3.61028 5.99764Z" fill="#445B74"/>
<path d="M18.0086 25.2849V29.5405L16.096 28.3929L14.1835 29.5405V25.2849" stroke="#445B74" stroke-width="1.8" stroke-linecap="round" stroke-linejoin="round"/>
<path d="M14.9778 18.2092C15.5073 17.5653 16.4931 17.5653 17.0226 18.2092V18.2092C17.2697 18.5096 17.6363 18.6862 18.0252 18.692V18.692C18.8588 18.7045 19.4734 19.4753 19.3001 20.2907V20.2907C19.2193 20.6712 19.3098 21.0679 19.5477 21.3756V21.3756C20.0577 22.0351 19.8383 22.9962 19.0927 23.3692V23.3692C18.7449 23.5432 18.4912 23.8613 18.3989 24.2391V24.2391C18.2012 25.049 17.3131 25.4768 16.5566 25.1264V25.1264C16.2037 24.9629 15.7968 24.9629 15.4439 25.1264V25.1264C14.6874 25.4768 13.7992 25.049 13.6015 24.2391V24.2391C13.5093 23.8613 13.2556 23.5432 12.9077 23.3692V23.3692C12.1621 22.9962 11.9428 22.0351 12.4527 21.3756V21.3756C12.6906 21.0679 12.7811 20.6712 12.7003 20.2907V20.2907C12.527 19.4753 13.1417 18.7045 13.9753 18.692V18.692C14.3641 18.6862 14.7308 18.5096 14.9778 18.2092V18.2092Z" stroke="#445B74" stroke-width="1.8"/>
<path d="M19.9127 7.32545C19.9127 8.75589 18.718 9.91542 17.2442 9.91542C16.8761 9.91542 16.5771 9.62516 16.5771 9.26793C16.5771 8.91069 16.8761 8.62043 17.2442 8.62043C17.9803 8.62043 18.5784 8.03992 18.5784 7.32545C18.5784 6.61097 17.9803 6.03046 17.2442 6.03046C16.8761 6.03046 16.5771 5.7402 16.5771 5.38297C16.5771 5.03168 16.8669 4.7444 17.2273 4.73547C17.2335 4.73547 17.2381 4.73547 17.2442 4.73547C17.2503 4.73547 17.2565 4.73547 17.2611 4.73547C18.7272 4.7444 19.9127 5.90096 19.9127 7.32545Z" fill="url(#paint0_linear_1548_35344)"/>
<path d="M17.9111 5.38297C17.9111 5.7402 17.6121 6.03046 17.2441 6.03046C16.8761 6.03046 16.5771 5.7402 16.5771 5.38297C16.5771 5.03168 16.8669 4.7444 17.2272 4.73547C17.2334 4.73547 17.238 4.73547 17.2441 4.73547C17.2502 4.73547 17.2564 4.73547 17.261 4.73547C17.6213 4.7444 17.9111 5.03168 17.9111 5.38297Z" fill="url(#paint1_linear_1548_35344)"/>
<path d="M17.2441 9.91657C17.6125 9.91657 17.9111 9.62668 17.9111 9.26907C17.9111 8.91147 17.6125 8.62158 17.2441 8.62158C16.8757 8.62158 16.5771 8.91147 16.5771 9.26907C16.5771 9.62668 16.8757 9.91657 17.2441 9.91657Z" fill="url(#paint2_linear_1548_35344)"/>
<path d="M17.2468 8.62158H14.5784V9.91657H17.2468V8.62158Z" fill="url(#paint3_linear_1548_35344)"/>
<path d="M15.2454 12.0752C14.8789 12.0752 14.5784 11.7835 14.5784 11.4277V7.32694C14.5784 6.97119 14.8789 6.67944 15.2454 6.67944C15.6119 6.67944 15.9124 6.97119 15.9124 7.32694V11.4277C15.9124 11.7835 15.6119 12.0752 15.2454 12.0752Z" fill="url(#paint4_linear_1548_35344)"/>
<path d="M17.2441 6.67944C16.8776 6.67944 16.5771 6.97119 16.5771 7.32694C16.5771 7.68269 16.8776 7.97443 17.2441 7.97443C17.6106 7.97443 17.9111 7.68269 17.9111 7.32694C17.9111 6.97119 17.6106 6.67944 17.2441 6.67944Z" fill="url(#paint5_linear_1548_35344)"/>
<path d="M17.2429 7.97443H14.1328C13.7647 7.97443 13.4656 7.68417 13.4656 7.32694C13.4656 6.9697 13.7647 6.67944 14.1328 6.67944H17.2429C17.6109 6.67944 17.91 6.9697 17.91 7.32694C17.91 7.68417 17.6109 7.97443 17.2429 7.97443Z" fill="url(#paint6_linear_1548_35344)"/>
<path d="M17.2441 4.73547C16.8776 4.73547 16.5771 5.02722 16.5771 5.38297C16.5771 5.73872 16.8776 6.03046 17.2441 6.03046C17.6106 6.03046 17.9111 5.73872 17.9111 5.38297C17.9111 5.02722 17.6106 4.73547 17.2441 4.73547Z" fill="url(#paint7_linear_1548_35344)"/>
<path d="M17.1306 6.03046H13.2429C12.8749 6.03046 12.5758 5.7402 12.5758 5.38297C12.5758 5.02573 12.8749 4.73547 13.2429 4.73547H17.1306C17.4986 4.73547 17.7977 5.02573 17.7977 5.38297C17.7977 5.7402 17.4986 6.03046 17.1306 6.03046Z" fill="url(#paint8_linear_1548_35344)"/>
<path d="M24.8083 14.0302H7.19171" stroke="#445B74" stroke-width="1.8" stroke-linecap="round" stroke-linejoin="round"/>
<path d="M10.1278 16.9659H7.19171" stroke="#445B74" stroke-width="1.8" stroke-linecap="round" stroke-linejoin="round"/>
<path d="M24.8083 16.9659H21.8722" stroke="#445B74" stroke-width="1.8" stroke-linecap="round" stroke-linejoin="round"/>
<defs>
<linearGradient id="paint0_linear_1548_35344" x1="22.2435" y1="2.14717" x2="10.1312" y2="16.8234" gradientUnits="userSpaceOnUse">
<stop stop-color="#00A8A1"/>
<stop offset="1" stop-color="#41FF7A"/>
</linearGradient>
<linearGradient id="paint1_linear_1548_35344" x1="20.9867" y1="1.11043" x2="8.87407" y2="15.785" gradientUnits="userSpaceOnUse">
<stop stop-color="#00A8A1"/>
<stop offset="1" stop-color="#41FF7A"/>
</linearGradient>
<linearGradient id="paint2_linear_1548_35344" x1="22.9617" y1="2.74181" x2="10.8491" y2="17.4164" gradientUnits="userSpaceOnUse">
<stop stop-color="#00A8A1"/>
<stop offset="1" stop-color="#41FF7A"/>
</linearGradient>
<linearGradient id="paint3_linear_1548_35344" x1="22.1909" y1="2.10273" x2="10.0786" y2="16.7789" gradientUnits="userSpaceOnUse">
<stop stop-color="#00A8A1"/>
<stop offset="1" stop-color="#41FF7A"/>
</linearGradient>
<linearGradient id="paint4_linear_1548_35344" x1="21.8576" y1="1.82882" x2="9.74496" y2="16.5034" gradientUnits="userSpaceOnUse">
<stop stop-color="#00A8A1"/>
<stop offset="1" stop-color="#41FF7A"/>
</linearGradient>
<linearGradient id="paint5_linear_1548_35344" x1="21.9742" y1="1.92703" x2="9.86159" y2="16.6016" gradientUnits="userSpaceOnUse">
<stop stop-color="#00A8A1"/>
<stop offset="1" stop-color="#41FF7A"/>
</linearGradient>
<linearGradient id="paint6_linear_1548_35344" x1="22.2505" y1="-0.163841" x2="6.81977" y2="18.5332" gradientUnits="userSpaceOnUse">
<stop stop-color="#00A8A1"/>
<stop offset="1" stop-color="#41FF7A"/>
</linearGradient>
<linearGradient id="paint7_linear_1548_35344" x1="20.9867" y1="1.11042" x2="8.87406" y2="15.785" gradientUnits="userSpaceOnUse">
<stop stop-color="#00A8A1"/>
<stop offset="1" stop-color="#41FF7A"/>
</linearGradient>
<linearGradient id="paint8_linear_1548_35344" x1="21.423" y1="-1.73541" x2="3.38308" y2="20.1231" gradientUnits="userSpaceOnUse">
<stop stop-color="#00A8A1"/>
<stop offset="1" stop-color="#41FF7A"/>
</linearGradient>
</defs>
</svg>

<svg xmlns="http://www.w3.org/2000/svg" width="27.446" height="29.155" viewBox="0 0 27.446 29.155">
  <g id="icon_bonds" transform="translate(-2.277 -1.286)">
    <path id="Path_2257" data-name="Path 2257" d="M3.277,19.091h-1a1,1,0,0,0,.667.943Zm0-14.036-.333-.943a1,1,0,0,0-.667.943Zm1.957,16.8h-1a1,1,0,0,0,.979,1Zm6.876,0v1a1,1,0,0,0,.9-.567Zm.156-.252.791.612Zm.261-1.142.978-.208Zm1.342-1.683-.015-1h0Zm1.055-.508-.772-.635h0Zm2.153,0,.772-.635h0Zm1.055.508.015-1h0Zm1.342,1.683.978.208h0Zm.261,1.142-.791.612Zm.155.252-.9.433a1,1,0,0,0,.9.567Zm6.833,0v1h.005Zm.022,0,.005,1h.01Zm.021,0,.016,1a1,1,0,0,0,.984-1Zm1.957-2.769.333.943a1,1,0,0,0,.667-.943Zm0-14.036h1a1,1,0,0,0-.667-.943ZM26.766,2.286h1a1,1,0,0,0-.979-1Zm-21.531,0-.021-1a1,1,0,0,0-.979,1Zm-.957,16.8V5.055h-2V19.091Zm1.957,2.768A3.937,3.937,0,0,0,3.61,18.148l-.666,1.886A1.937,1.937,0,0,1,4.234,21.86Zm-.957-1H5.255l-.042,2h.063Zm6.833,0H5.277v2H12.11Zm.9,1.433a.408.408,0,0,1,.045-.073L11.475,21a2.4,2.4,0,0,0-.266.431Zm.045-.073a2.394,2.394,0,0,0,.448-1.962l-1.956.416a.394.394,0,0,1-.074.323Zm.448-1.962a.393.393,0,0,1,.379-.475l-.03-2a2.394,2.394,0,0,0-2.305,2.891Zm.379-.475A2.393,2.393,0,0,0,15.7,18.91l-1.545-1.27a.393.393,0,0,1-.3.144ZM15.7,18.91a.393.393,0,0,1,.608,0l1.545-1.27a2.394,2.394,0,0,0-3.7,0Zm.608,0a2.393,2.393,0,0,0,1.813.873l.03-2a.393.393,0,0,1-.3-.144Zm1.813.873a.393.393,0,0,1,.379.475l1.956.416a2.394,2.394,0,0,0-2.305-2.891Zm.379.475a2.393,2.393,0,0,0,.448,1.962L20.526,21a.394.394,0,0,1-.074-.323Zm.448,1.962a.408.408,0,0,1,.045.073l1.8-.865A2.4,2.4,0,0,0,20.526,21Zm7.78-1.36H19.89v2h6.833Zm.017,0h-.022l.011,2h.022Zm.01,0h-.021l.031,2h.021Zm1.64-2.712a3.937,3.937,0,0,0-2.624,3.711h2a1.937,1.937,0,0,1,1.291-1.826ZM27.723,5.055V19.091h2V5.055ZM25.766,2.286A3.937,3.937,0,0,0,28.39,6l.667-1.886a1.937,1.937,0,0,1-1.291-1.826Zm.957,1h.022l.042-2h-.063Zm-21.446,0H26.723v-2H5.277Zm-.022,0h.022v-2H5.214ZM3.61,6A3.937,3.937,0,0,0,6.234,2.286h-2A1.937,1.937,0,0,1,2.944,4.112Z" fill="#445b74"/>
    <path id="Path_2258" data-name="Path 2258" d="M18.009,25.285v4.256L16.1,28.393l-1.913,1.148V25.285" fill="none" stroke="#445b74" stroke-linecap="round" stroke-linejoin="round" stroke-width="1.8"/>
    <path id="Path_2259" data-name="Path 2259" d="M14.978,18.209a1.324,1.324,0,0,1,2.045,0h0a1.324,1.324,0,0,0,1,.483h0a1.324,1.324,0,0,1,1.275,1.6h0a1.324,1.324,0,0,0,.248,1.085h0a1.324,1.324,0,0,1-.455,1.994h0a1.324,1.324,0,0,0-.694.87h0a1.324,1.324,0,0,1-1.842.887h0a1.323,1.323,0,0,0-1.113,0h0a1.324,1.324,0,0,1-1.842-.887h0a1.323,1.323,0,0,0-.694-.87h0a1.324,1.324,0,0,1-.455-1.994h0a1.324,1.324,0,0,0,.248-1.085h0a1.324,1.324,0,0,1,1.275-1.6h0a1.324,1.324,0,0,0,1-.483Z" fill="none" stroke="#445b74" stroke-width="1.8"/>
    <path id="Path_2269" data-name="Path 2269" d="M24.808,14.03H7.192" fill="none" stroke="#445b74" stroke-linecap="round" stroke-linejoin="round" stroke-width="1.8"/>
    <path id="Path_2270" data-name="Path 2270" d="M10.128,16.966H7.192" fill="none" stroke="#445b74" stroke-linecap="round" stroke-linejoin="round" stroke-width="1.8"/>
    <path id="Path_2271" data-name="Path 2271" d="M24.808,16.966H21.872" fill="none" stroke="#445b74" stroke-linecap="round" stroke-linejoin="round" stroke-width="1.8"/>
  </g>
</svg>
